site/img/logos/deiser.svg

<?xml version="1.0" encoding="UTF-8"?>
<svg width="400px" height="360px" viewBox="0 0 400 360" version="1.1" xmlns="http://www.w3.org/2000/svg" xmlns:xlink="http://www.w3.org/1999/xlink">
    <title>logos/deiser</title>
    <g id="logos/deiser" stroke="none" stroke-width="1" fill="none" fill-rule="evenodd">
        <path d="M75.0795948,247.387844 L97.3371925,260.151954 L49.4645441,287.619392 L27.4674385,275.057887 L75.0795948,247.387844 Z M24.804631,218.328509 L46.8017366,230.947902 L46.8017366,260.180897 L24.804631,272.88712 L24.804631,218.328509 Z M285.557164,202.004342 C295.832127,202.004342 302.141823,204.696093 302.141823,204.696093 C302.141823,207.995658 301.128799,211.613603 298.986975,213.986975 L298.373655,213.815719 C296.821211,213.404481 292.503618,212.39508 287.525326,212.39508 C280.723589,212.39508 277.48191,214.450072 277.48191,218.473227 C277.48191,222.814761 284.023155,223.827786 290.680174,226.201158 L291.243263,226.408533 C297.997038,228.936694 304.573082,232.934838 304.573082,242.988423 C304.573082,254.421129 297.539797,260.643994 283.241679,260.643994 C271.635311,260.643994 264.370478,256.794501 264.370478,256.794501 C264.370478,253.494935 265.557164,249.703329 267.380608,247.185239 L268.134619,247.426048 C270.164972,248.045414 276.024462,249.645441 282.373372,249.645441 C288.625181,249.645441 291.46165,247.590449 291.46165,243.567294 C291.46165,239.949349 287.901592,238.357453 283.328509,236.794501 L281.784299,236.295837 C274.099851,233.845559 264.688857,231.0218 264.688857,219.370478 C264.688857,209.008683 271.259045,202.004342 285.557164,202.004342 Z M378.263386,202.930535 C390.332851,202.930535 396.903039,209.934877 396.903039,220.354559 C396.903039,227.76411 393.342981,233.610709 387.033285,236.128799 L399.913169,258.994211 L399.504824,259.092029 C398.636043,259.283054 396.408184,259.689513 393.083049,259.716397 L392.735166,259.7178 C388.306802,259.7178 385.788712,258.994211 385.788712,258.994211 L374.095514,237.720695 L369.204052,237.720695 L369.204052,258.994211 L368.842431,259.090341 C368.070153,259.2799 366.097684,259.686224 363.280974,259.716062 L362.952243,259.7178 C358.69754,259.7178 356.555716,258.994211 356.555716,258.994211 L356.555716,202.930535 L378.263386,202.930535 Z M234.06657,202.930535 C234.47178,204.117221 234.848046,205.767004 234.848046,207.503618 C234.848046,209.413893 234.529667,211.208394 234.06657,212.539797 L212.098408,212.539797 L212.098408,226.259045 L230.101302,226.259045 L230.272179,226.836144 C230.606338,228.0057 230.882779,229.281579 230.882779,230.918958 C230.882779,232.88712 230.564399,234.392185 230.101302,235.81042 L212.098408,235.81042 L212.098408,250.079595 L234.848046,250.079595 C235.311143,251.353111 235.629522,253.089725 235.629522,254.797395 C235.629522,256.505065 235.397974,258.270622 234.848046,259.688857 L199.479016,259.688857 L199.479016,202.959479 L234.06657,202.959479 L234.06657,202.930535 Z M249.696093,202.930535 C253.632417,202.930535 256.092619,203.654124 256.092619,203.654124 L256.092619,258.965268 L255.614274,259.084198 C254.748043,259.281655 252.760355,259.658428 250.10477,259.687118 L249.782923,259.688857 C245.586107,259.688857 243.473227,258.965268 243.473227,258.965268 L243.473227,203.654124 L243.444284,203.654124 L243.535985,203.627932 C244.006427,203.498184 246.260906,202.930535 249.696093,202.930535 Z M347.062229,202.930535 C347.467438,204.117221 347.843705,205.767004 347.843705,207.503618 C347.843705,209.413893 347.525326,211.208394 347.062229,212.539797 L325.094067,212.539797 L325.094067,226.259045 L343.096961,226.259045 C343.502171,227.590449 343.878437,229.008683 343.878437,230.918958 C343.878437,232.88712 343.560058,234.392185 343.096961,235.81042 L325.094067,235.81042 L325.094067,250.079595 L347.843705,250.079595 C348.306802,251.353111 348.625181,253.089725 348.625181,254.797395 C348.625181,256.505065 348.393632,258.270622 347.843705,259.688857 L312.474674,259.688857 L312.474674,202.959479 L347.062229,202.959479 L347.062229,202.930535 Z M166.309696,202.930535 C181.794501,202.930535 190.709117,210.890014 190.709117,231.295224 C190.709117,251.700434 181.794501,259.659913 166.309696,259.659913 L146.801737,259.659913 L146.801737,202.930535 L166.309696,202.930535 Z M51.0564399,175 L98.9290883,202.467438 L98.9290883,257.431259 L76.5846599,244.580318 L76.5846599,215.289436 L51.0564399,200.643994 L51.0564399,175 Z M166.02959,212.772301 L159.421129,212.771346 L159.421129,249.819103 L165.817656,249.819103 C172.937771,249.819103 177.337192,246.519537 177.337192,231.295224 L177.331893,230.387667 C177.160757,215.950103 172.856197,212.834384 166.02959,212.772301 L166.02959,212.772301 Z M21.6497829,219.341534 L21.6497829,242.409551 L1.5918958,230.861071 L21.6497829,219.341534 Z M47.8726483,175 L47.8726483,200.643994 L3.33955086e-13,228.140376 L3.33955086e-13,202.467438 L47.8726483,175 Z M376.439942,212.713459 L369.175109,212.713459 L369.175109,227.908828 L376.439942,227.908828 C381.244573,227.908828 383.704776,225.15919 383.704776,220.354559 C383.704776,215.463097 381.244573,212.713459 376.439942,212.713459 Z" id="Shape" fill="#FFFFFF" fill-rule="nonzero"></path>
    </g>
</svg>

<svg width="400" height="360" viewBox="0 0 400 360" xmlns="http://www.w3.org/2000/svg"><path d="M75.08 247.388l22.257 12.764-47.872 27.467-21.998-12.561 47.613-27.67zm-50.275-29.06l21.997 12.62v29.233l-21.997 12.706V218.33zm260.752-16.324c10.275 0 16.585 2.692 16.585 2.692 0 3.3-1.013 6.918-3.155 9.291l-.613-.171c-1.553-.412-5.87-1.42-10.849-1.42-6.801 0-10.043 2.054-10.043 6.077 0 4.342 6.541 5.355 13.198 7.728l.563.208c6.754 2.528 13.33 6.526 13.33 16.58 0 11.432-7.033 17.655-21.331 17.655-11.607 0-18.872-3.85-18.872-3.85 0-3.3 1.187-7.09 3.01-9.609l.755.241c2.03.62 7.89 2.22 14.238 2.22 6.252 0 9.089-2.056 9.089-6.079 0-3.618-3.56-5.21-8.133-6.772l-1.545-.5c-7.684-2.45-17.095-5.273-17.095-16.925 0-10.361 6.57-17.366 20.868-17.366zm92.706.927c12.07 0 18.64 7.004 18.64 17.424 0 7.41-3.56 13.256-9.87 15.774l12.88 22.865-.408.098c-.869.191-3.097.598-6.422.624l-.348.002c-4.428 0-6.946-.724-6.946-.724l-11.693-21.273h-4.892v21.273l-.362.096c-.772.19-2.744.596-5.561.626l-.329.002c-4.254 0-6.396-.724-6.396-.724v-56.063h21.707zm-144.196 0c.405 1.186.781 2.836.781 4.573 0 1.91-.318 3.704-.781 5.036h-21.969v13.719h18.003l.171.577c.334 1.17.61 2.446.61 4.083a15.06 15.06 0 01-.78 4.891h-18.004v14.27h22.75c.463 1.273.782 3.01.782 4.717 0 1.708-.232 3.474-.782 4.892h-35.369v-56.73h34.588v-.028zm15.63 0c3.935 0 6.396.723 6.396.723v55.311l-.479.12c-.866.197-2.854.573-5.51.602l-.321.002c-4.197 0-6.31-.724-6.31-.724v-55.31h-.029l.092-.027c.47-.13 2.725-.697 6.16-.697zm97.365 0c.405 1.186.782 2.836.782 4.573 0 1.91-.319 3.704-.782 5.036h-21.968v13.719h18.003c.405 1.331.781 2.75.781 4.66a15.06 15.06 0 01-.781 4.891h-18.003v14.27h22.75c.463 1.273.781 3.01.781 4.717 0 1.708-.231 3.474-.781 4.892h-35.37v-56.73h34.588v-.028zm-180.752 0c15.485 0 24.4 7.959 24.4 28.364s-8.915 28.365-24.4 28.365h-19.508v-56.73h19.508zM51.056 175l47.873 27.467v54.964l-22.344-12.85v-29.292l-25.529-14.645V175zm114.974 37.772h-6.609v37.047h6.397c7.12 0 11.52-3.3 11.52-18.524l-.006-.907c-.171-14.438-4.476-17.554-11.302-17.616zm-144.38 6.57v23.068L1.592 230.86l20.058-11.52zM47.873 175v25.644L0 228.14v-25.673L47.873 175zm328.567 37.713h-7.265v15.196h7.265c4.805 0 7.265-2.75 7.265-7.554 0-4.892-2.46-7.642-7.265-7.642z" fill="#FFF"/></svg>
